X:568
T:Wallace's Cross
R:Polka
O:Ireland
B:Ceol Rince 3 n69
D:Chieftains 8, Trk.6 #3
Z:Transcription, chords:Mike Long
M:2/4
L:1/8
K:D
"A"ef/e/ "G"dB|BA B/c/d|"A"ef/e/ "G"dB|BA A2|\
"A"ef/e/ "G"dB|BA B/c/d|"A"ab/a/ "G"gc|"D"ed d2:|
|:"D"f>e fA|B/c/d ef|"G"g>f ga|"A"ba fa|\
"D"f>e fA|B/c/d ef|"G"ab/a/ "A"gc|"D"ed d2:|
